!!!!SEGMENT: pl-kk--kk-i-382--013-002_fuhrer-robert--msza-na-4ry-glosy-gloria.krn
!!!cenid: 18xx:1511
!!!COM: Führer, Robert
!!!COM-rismID: pe30001170
!!!CDT: 1807/06/02-1861/11/28
!!!CNT: Czech
!!!OPR: Msza na 4ry głosy
!!!OTL: Gloria
!!!OMV: 002
!!!PDT:
!!!AGN: Sacred; Mass
!!!YEC: Copyright 2022 Narodowy Instytut Fryderyka Chopina (https://polishscores.org)
!!!YEM: License CC-BY-4.0 (https://creativecommons.org/licenses/by/4.0)
!!!SMS-siglum: PL-Kk
!!!SMS-shelfmark: Kk.I.382
!!!SMS-shelfwork: 013-002 M
!!!SMS-variant:
!!!SMS-altvar:
!!!NIFC-rismSourceID: 1001139027
!!!NIFC-rismChildID: 1001139162
!!!NIFC-islandoraID: pl-kk:6162
!!!URL-pdf-islandora: https://repozytorium.nifc.pl/islandora/object/pl-kk%3A6162/datastream/PDF/view
!!!URL-scan: https://polish.musicsources.pl/pl/lokalizacje/galeria/rekopisy/5994 @EN{Scan on Polish Music Sources Website} @PL{Skany w portalu Dziedzictwo Muzyki Polskiej w otwartym dostępie}
!!!IIIF:
!!!ONB-nifc: UWAGA: obsada: S (T 1), T 2, B 1, B 2; S (T 1): skan 0028-0029; T 2: skan 0176; B 1: skan 0100-0101; B 2: skan 0248-0249
!!!AIN: 2 empty 2 tenor
!!!key:
**kern	**text	**dynam	**kern	**text	**dynam	**kern	**text	**kern	**text	**dynam
*part4	*	*	*part3	*	*	*part2	*	*part1	*	*
*staff4	*	*	*staff3	*	*	*staff2	*	*staff1	*	*
*Iempty	*	*	*Iempty	*	*	*Itenor	*	*Itenor	*	*
*I"Bas IIgi	*	*	*I"Bas I	*	*	*I"Tenor IIgi	*	*I"Soprano vel Tenore I.	*	*
*I'B 2	*	*	*I'B 1	*	*	*I'T 2	*	*I'S (T 1)	*	*
*clefF4	*	*	*clefF4	*	*	*clefG2	*	*clefG2	*	*
*	*	*	*	*	*	*Trd0c0	*	*Trd0c0	*	*
*k[]	*	*	*k[]	*	*	*k[]	*	*k[]	*	*
*C:	*	*	*C:	*	*	*C:	*	*C:	*	*
*M4/4	*	*	*M4/4	*	*	*M4/4	*	*M4/4	*	*
*met(c)	*	*	*met(c)	*	*	*met(c)	*	*met(c)	*	*
=1	=1	=1	=1	=1	=1	=1	=1	=1	=1	=1
!	!	!	!LO:TX:a:i:t=Gloria	!	!	!	!	!LO:TX:a:i:t=Allegro	!	!
!LO:TX:a:i:t=Allegro	!	!LO:DY:a:rj	!LO:TX:a:i:t=Allegro	!	!LO:DY:a:rj	!LO:TX:a:i:t=Glorya	!	!LO:TX:a:i:t=Gloria	!	!LO:DY:a:rj
!LO:TX:a:t=P:problem=napis "Allegro" przed kluczem	!	!	!LO:TX:a:t=P:problem=napis "Gloria" przed kluczem	!	!	!LO:TX:a:t=P:problem=napis "Glorya" przed kluczem	!	!LO:TX:a:t=P:problem=napis "Gloria" przed kluczem	!	!
!LO:TX:a:t=P:problem=oznaczenie dynamiczne na pięciolinii przed nutą	!	!	!LO:TX:a:t=P:problem=oznaczenie dynamiczne na pięciolinii przed nutą	!	!	!	!	!LO:TX:a:t=P:problem=oznaczenie dynamiczne na pięciolinii przed nutą	!	!
4C/	Glo-	f	4E\	Glo-	f	4g/	Glo-	4cc\	Glo-	f
8D/	-ri-	.	8F\	-ri-	.	8g/	-ri-	8b\	-ri-	.
8D/	-a	.	8F\	-a	.	8g/	-a	8b\	-a	.
4C/	in	.	4E\	in	.	4g/	in	4cc\	in	.
4GG/	ex-	.	4G\	ex-	.	4b/	ex-	4dd\	ex-	.
=2	=2	=2	=2	=2	=2	=2	=2	=2	=2	=2
2C/	-cel-	.	2G\	-cel-	.	2.cc\	-cel-	2ee\	-cel-	.
2E\	-sis	.	2G\	-sis	.	.	.	2cc\	-sis	.
.	.	.	.	.	.	4cc\	-sis	.	.	.
=3	=3	=3	=3	=3	=3	=3	=3	=3	=3	=3
(<2D/	De-	.	(>4A\	De-	.	(>2cc\	De-	(>2.ff\	De-	.
.	.	.	4A-X\	.	.	.	.	.	.	.
2GG/)	.	.	2G\)	.	.	2b\)	.	.	.	.
.	.	.	.	.	.	.	.	8ee\L	.	.
.	.	.	.	.	.	.	.	8dd\J)	.	.
=4	=4	=4	=4	=4	=4	=4	=4	=4	=4	=4
4C/	-o	.	4G\	-o,	.	4cc\	-o,	4ee\	-o.	.
(>4G\	et	.	4r	.	.	4r	.	4r	.	.
4E\)	.	.	4r	.	.	4r	.	4r	.	.
4C/	in	.	4E\	lau-	.	4g/	lau-	4cc\	lau-	.
!LO:LB:g=original	!	!	!LO:LB:g=original	!	!	!LO:LB:g=original	!	!LO:LB:g=original	!	!
=5	=5	=5	=5	=5	=5	=5	=5	=5	=5	=5
(>2GG/	ter-	.	(>4D\	-da-	.	2.g/	-da-	(>4b\	-da-	.
.	.	.	2F\)	.	.	.	.	2dd\)	.	.
4BB/	.	.	.	.	.	.	.	.	.	.
4C/)	-ra	.	4E\	-mus	.	4g/	-mus	4cc\	-mus	.
=6	=6	=6	=6	=6	=6	=6	=6	=6	=6	=6
4GG/	pax,	.	4D\	te	.	(>4g/	Te	4b\	te,	.
!LO:TX:a:t=P:problem=oznaczenie dynamiczne na pięciolinii przed nutą	!	!LO:DY:a:rj	!LO:TX:a:t=P:problem=oznaczenie dynamiczne na pięciolinii przed nutą	!	!LO:DY:a:rj	!	!	!LO:TX:a:t=P:problem=oznaczenie dynamiczne na pięciolinii przed nutą	!	!LO:DY:a:rj
4G\	lau-	f	2G\	Do-	f	4g/	Do-	(>4b\	Do-	f
4G\	-da-	.	.	.	.	4a/)	.	4cc\)	-[[mi]]-	.
4GG/	-mus	.	8G\	-mi-	.	8b/	-mi-	8dd\	-mi-	.
.	.	.	8G\	-ne	.	8b/	-ne	8dd\	-ne,	.
=7	=7	=7	=7	=7	=7	=7	=7	=7	=7	=7
2C/	Te.	.	4G\	De-	.	4cc\	De-	4ee\	De-	.
.	.	.	4F#X\	-us	.	4cc\	-us	4dd#X\	-us	.
4C/	Rex	.	4G\	Rex	.	4.cc\	Rex	4ee\	Rex	.
!	!	!	!	!LO:MO:mod=coe-	!	!	!	!	!	!
4C/	coe-	.	4A\	ce-	.	.	.	4ff\	coe-	.
.	.	.	.	.	.	8cc\	coe-	.	.	.
=8	=8	=8	=8	=8	=8	=8	=8	=8	=8	=8
2C/	-le-	.	(>4.G\	-le-	.	(>4.cc\	-le-	(>4.ee\	-le-	.
.	.	.	8Fn\)	.	.	8b\)	.	8dd\)	.	.
2C/	-stis.	.	(>4E\	-stis.	.	2cc\	-stis.	(>4cc\	-stis	.
.	.	.	4G\)	.	.	.	.	4ee\)	.	.
!	!	!	!LO:LB:g=original	!	!	!	!	!LO:LB:g=original	!	!
=9	=9	=9	=9	=9	=9	=9	=9	=9	=9	=9
2BB/	Do-	.	2G\	Do-	.	2g/	Do-	4.dd\	Do-	.
.	.	.	.	.	.	.	.	8dd\	-mi-	.
4AA/	-mi-	.	4F#X\	-mi-	.	4cc\	-mi-	2dd\	-ne	.
!LO:TX:b:i:t=V. S.	!	!	!	!	!	!	!	!	!	!
4D/	-ne	.	4F#\	-ne	.	4cc\	-ne	.	.	.
!LO:PB:g=original	!	!	!	!	!	!LO:LB:g=original	!	!	!	!
=10	=10	=10	=10	=10	=10	=10	=10	=10	=10	=10
4.GG/	fi-	.	2G\	fi-	.	4b\	fi-	4dd\	fi-	.
.	.	.	.	.	.	4b\	-li	4dd#X\	-li	.
8GG/	-li	.	.	.	.	.	.	.	.	.
4C/	u-	.	4G\	-li	.	4cc\	u-	4ee\	u-	.
4E\	-ni-	.	4r	.	.	4g/	-ni-	4cc\	-ni-	.
=11	=11	=11	=11	=11	=11	=11	=11	=11	=11	=11
2.D/	-ge-	.	4r	.	.	(<4g/	-ge-	(>4b\	-ge-	.
.	.	.	8G\	u-	.	4b/	.	2dd\)	.	.
.	.	.	8G\	-ni-	.	.	.	.	.	.
.	.	.	4F#X\	-ge-	.	4a/)	.	.	.	.
4D/	-ni-	.	4A\	-ni-	.	4cc\	-ni-	4dd\	-ni-	.
=12	=12	=12	=12	=12	=12	=12	=12	=12	=12	=12
2GG/	-te.	.	2G\	-te,	.	2b/	-te,	2dd\	-te,	.
4r	.	.	4r	.	.	4r	.	4r	.	.
!	!	!	!	!	!	!	!	!LO:TX:b:i:t=V. S.	!	!
4G\	Cum	.	4G\	cum	.	4g/	cum	4g/	cum	.
!	!	!	!	!	!	!	!	!LO:PB:g=original	!	!
=13	=13	=13	=13	=13	=13	=13	=13	=13	=13	=13
(>4BB/	san-	.	(>2G\	San-	.	(>4dd\	san-	(>4ffn\	San-	.
4C/	.	.	.	.	.	2cc\)	.	4ee\	.	.
4F\)	.	.	4A\)	.	.	.	.	4dd\)	.	.
4F#X\	-cto	.	4A\	-cto	.	4cc\	-cto	4dd\	-cto	.
!	!	!	!LO:LB:g=original	!	!	!LO:LB:g=original	!	!	!	!
=14	=14	=14	=14	=14	=14	=14	=14	=14	=14	=14
4G\	spi-	.	4.G\	Spi-	.	4.b/	Spi-	4.dd\	Spi-	.
4GG/	-ri-	.	.	.	.	.	.	.	.	.
.	.	.	8G\	-ri-	.	8a#X/	-ri-	8cc#X\	-ri-	.
4G\	-tu	.	4G\	-tu	.	4b/	-tu	4dd\	-tu	.
4Fn\	in	.	4G\	in	.	4b/	in	4dd\	in	.
=15	=15	=15	=15	=15	=15	=15	=15	=15	=15	=15
4E\	Glo-	.	4G\	Glo-	.	4cc\	glo-	4gg\	Glo-	.
8BB/	-ri-	.	8G\	-ri-	.	8dd\	-ri-	8ff\	-ri-	.
8BB/	-a	.	8G\	-a	.	8dd\	-a	8ff\	-a	.
4C/	De-	.	4G\	De-	.	4cc\	De-	4ee\	De-	.
4F\	-i	.	4G\	-i	.	4b/	-i	4dd\	-i	.
!LO:LB:g=original	!	!	!	!	!	!	!	!LO:LB:g=original	!	!
=16	=16	=16	=16	=16	=16	=16	=16	=16	=16	=16
4E\	Pa-	.	2G\	Pa-	.	4cc\	Pa-	(>4cc\	Pa-	.
4D/	-tris	.	.	.	.	4b\	-tris	4dd\)	.	.
(4C/	a-	.	4G\	-tris.	.	(>4cc\	a-	4ee\	-tris	.
4E\)	.	.	4r	.	.	4g/	.	[>4cc\	a-	.
=17	=17	=17	=17	=17	=17	=17	=17	=17	=17	=17
!	!	!	!LO:TX:a:t=2	!	!	!	!	!	!	!
!	!	!	!LO:TX:a:t=P:problem=belka jako pauza wielotaktowa	!	!	!	!	!	!	!
2F\	-a-	.	1r	.	.	2.a/)	.	4cc\]	.	.
.	.	.	.	.	.	.	.	4cc#X\	-a	.
2F#X\	-men,	.	.	.	.	.	.	[>2dd\	a-	.
!	!	!	!	!	!	!LO:TX:b:i:t=V. S.	!	!	!	!
.	.	.	.	.	.	4a#X/	-men,	.	.	.
!	!	!	!	!	!	!LO:PB:g=original	!	!	!	!
=18	=18	=18	=18	=18	=18	=18	=18	=18	=18	=18
2G\	a-	.	1r	.	.	(>2.b\	a-	4dd\]	.	.
.	.	.	.	.	.	.	.	(>4dd#X\	-a-	.
2G#X\	-men,	.	.	.	.	.	.	4ee\)	.	.
.	.	.	.	.	.	8cc\L	-men,	4ee\	-men	.
.	.	.	.	.	.	8dd\J)	.	.	.	.
!	!	!	!	!	!	!	!	!LO:LB:g=original	!	!
=19	=19	=19	=19	=19	=19	=19	=19	=19	=19	=19
2.A\	a-	.	4r	.	.	2.cc\	a-	4ee\	a-	.
.	.	.	4r	.	.	.	.	(>8dd#X\L	.	.
.	.	.	.	.	.	.	.	8ee\J)	.	.
.	.	.	4c\	a-	.	.	.	4ff\	.	.
4Gn\	-men,	.	4c\	-men	.	4cc\	-men,	4ee\	-men	.
!	!	!	!LO:LB:g=original	!	!	!	!	!	!	!
=20	=20	=20	=20	=20	=20	=20	=20	=20	=20	=20
2F#X^>\	a-	.	2A\	a-	.	2cc^>\	a-	2dd^>\	a-	.
2Fn^>\	-men,	.	2A-X\	-men,	.	2b^>\	-men,	2dd^>\	-men,	.
=21	=21	=21	=21	=21	=21	=21	=21	=21	=21	=21
2E\	a-	.	2G\	a-	.	2cc^>\	a-	2gg\	a-	.
2F\	-men,	.	2An\	-men	.	2dd^>\	-men,	2ff\	-men,	.
!LO:LB:g=original	!	!	!	!	!	!	!	!	!	!
=22	=22	=22	=22	=22	=22	=22	=22	=22	=22	=22
(>2G\	a-	.	(>2.G\	a-	.	(>2cc\	a-	(>2ee\	a-	.
2GG/)	.	.	.	.	.	2b\)	.	2dd\)	.	.
.	.	.	4F\)	.	.	.	.	.	.	.
!	!	!	!	!	!	!	!	!LO:LB:g=original	!	!
=23	=23	=23	=23	=23	=23	=23	=23	=23	=23	=23
4C/	-men,	.	4E\	-men,	.	4cc\	-men,	4cc\	-men,	.
!	!	!	!	!	!	!	!	!LO:TX:a:t=P:problem=łuk dopisany ołówkiem	!	!
4r	.	.	4r	.	.	4r	.	(>4g/	a-	.
2r	.	.	2r	.	.	2r	.	4ee\)	[[-men,]]	.
.	.	.	.	.	.	.	.	4cc\	-men	.
=24	=24	=24	=24	=24	=24	=24	=24	=24	=24	=24
!	!	!	!	!	!	!	!	!LO:TX:a:t=P:problem=łuk dopisany ołówkiem	!	!
1GG	A-	.	(>2D\	A-	.	1g	a-	(>2.b\	A-	.
.	.	.	2F\)	.	.	.	.	.	.	.
.	.	.	.	.	.	.	.	4dd\)	[[A]]	.
=25	=25	=25	=25	=25	=25	=25	=25	=25	=25	=25
1C;>	-men.	.	1E;>	-men	.	1g;>	-men.	1cc;>	-men.	.
==	==	==	==	==	==	==	==	==	==	==
*-	*-	*-	*-	*-	*-	*-	*-	*-	*-	*-
!!!system-decoration: [(s1,s2,s3,s4)]
!!!RDF**kern: > = above
!!!RDF**kern: < = below
!!!EED: Mateusz Mrugas
!!!EEV: 2021-02-06
!!!ENC: Andrzej Borzym
!!!END: 2021-01-29
